!!!OTL: Die Schlangenkoechin.
!!!OTL-incipit:Kind, wo bist du hingewesen?
!!!ARE: Europa, Mitteleuropa, Deutschland (BRD), Niedersachsen
!!!YOR: 4, S. 210
!!    1936 gedruckt in Leipzig
!!!SCT: Q0079R
!!!TXL: @@DE
!!!YEM: Copyright 1995, estate of Helmut Schaffrath.
**kern	**text
*ICvox	*
*M3/4	*
*k[f#]	*
*G:	*
!LO:TX:a:t=Nicht zu schnell	!
!LO:TX:a:t=9a Niederſachſen	!
{[8d	Kind,
8d]	wo
=1	=1
4g	biſt
4g	du
8a	hin-
8cc	-ge-
=2	=2
4b	-we-
4g}	-ſen?
{4b	Kind,
=3	=3
4.a	ſa-
8g	-ge
8f#L	es
8aJ	.
=4	=4
4g	mir!
4r}	.
{[8d	Nach
8d]	.
=5	=5
4g	mei-
4g	-ner
8a	Mut-
8cc	-ter
=6	=6
8b	Schwe-
8a	.
4g}	-ſter,
{4b	wie
=7	=7
4.a	we-
8g	-he
4f#	iſt
=8	=8
4g	mir!
4r}	.
==	==
!!!AGN: Ballade, Mord; Reigen - Tanz, antiphonal
!! Zweite und vierte Zeile = Refrain.
!!!ONB: ESAC (Essen Associative Code) Database: BALLADE
!!!AMT: simple triple
!!!AIN: vox
!!!EED: Helmut Schaffrath
!!!EEV: 1.0
!!!source: Deutsche Volkslieder mit ihren Melodien. Herausgegeben vom Deutschen Volksliedarchiv. Vierter Band. Berlin 1959.
!!!page: 210
!!!ENC: Anna Maria Matuszewska
!!!EEV: 2025/02/25
*-	*-
